Adwaita/symbolic/status/network-vpn-acquiring-symbolic.svg

<?xml version="1.0" encoding="UTF-8"?>
<svg height="16px" viewBox="0 0 16 16" width="16px" xmlns="http://www.w3.org/2000/svg">
    <g fill="#2e3436">
        <path d="m 3 6 c -1.105469 0 -2 0.894531 -2 2 s 0.894531 2 2 2 s 2 -0.894531 2 -2 s -0.894531 -2 -2 -2 z m 5 0 c -1.105469 0 -2 0.894531 -2 2 s 0.894531 2 2 2 s 2 -0.894531 2 -2 s -0.894531 -2 -2 -2 z m 5 0 c -1.105469 0 -2 0.894531 -2 2 s 0.894531 2 2 2 s 2 -0.894531 2 -2 s -0.894531 -2 -2 -2 z m 0 0"/>
        <path d="m 7.917969 1 c -1.617188 0 -2.917969 1.300781 -2.917969 2.917969 v 1.082031 h 2 v -1 c 0 -0.554688 0.445312 -1 1 -1 s 1 0.445312 1 1 v 1 h 2 v -1.082031 c 0 -1.617188 -1.300781 -2.917969 -2.917969 -2.917969 z m -0.917969 10 v 1.21875 c -0.316406 0.179688 -0.578125 0.441406 -0.757812 0.757812 h -3.246094 c -0.550782 0 -1 0.449219 -1 1 c 0 0.550782 0.449218 1 1 1 h 3.285156 c 0.363281 0.601563 1.011719 0.972657 1.714844 0.972657 s 1.355468 -0.371094 1.71875 -0.972657 h 3.292968 c 0.550782 0 1 -0.449218 1 -1 c 0 -0.550781 -0.449218 -1 -1 -1 h -3.257812 c -0.179688 -0.3125 -0.4375 -0.574218 -0.75 -0.753906 v -1.222656 z m 0.996094 1.9375 c 0.554687 0 1.007812 0.449219 1.003906 1.007812 c 0.003906 0.554688 -0.449219 1.003907 -1.003906 1.003907 c -0.554688 0 -1.007813 -0.449219 -1.007813 -1.003907 c 0 -0.558593 0.453125 -1.007812 1.007813 -1.007812 z m 0 0" fill-opacity="0.34902"/>
    </g>
</svg>

<?xml version="1.0" encoding="UTF-8"?>
<svg xmlns="http://www.w3.org/2000/svg" xmlns:xlink="http://www.w3.org/1999/xlink" width="16px" height="16px" viewBox="0 0 16 16" version="1.1">
<g id="surface114831">
<path style=" stroke:none;fill-rule:nonzero;fill:rgb(18.039216%,20.392157%,21.176471%);fill-opacity:1;" d="M 3 6 C 1.894531 6 1 6.894531 1 8 C 1 9.105469 1.894531 10 3 10 C 4.105469 10 5 9.105469 5 8 C 5 6.894531 4.105469 6 3 6 Z M 8 6 C 6.894531 6 6 6.894531 6 8 C 6 9.105469 6.894531 10 8 10 C 9.105469 10 10 9.105469 10 8 C 10 6.894531 9.105469 6 8 6 Z M 13 6 C 11.894531 6 11 6.894531 11 8 C 11 9.105469 11.894531 10 13 10 C 14.105469 10 15 9.105469 15 8 C 15 6.894531 14.105469 6 13 6 Z M 13 6 "/>
<path style=" stroke:none;fill-rule:nonzero;fill:rgb(18.039216%,20.392157%,21.176471%);fill-opacity:0.34902;" d="M 7.917969 1 C 6.300781 1 5 2.300781 5 3.917969 L 5 5 L 7 5 L 7 4 C 7 3.445312 7.445312 3 8 3 C 8.554688 3 9 3.445312 9 4 L 9 5 L 11 5 L 11 3.917969 C 11 2.300781 9.699219 1 8.082031 1 Z M 7 11 L 7 12.21875 C 6.683594 12.398438 6.421875 12.660156 6.242188 12.976562 L 2.996094 12.976562 C 2.445312 12.976562 1.996094 13.425781 1.996094 13.976562 C 1.996094 14.527344 2.445312 14.976562 2.996094 14.976562 L 6.28125 14.976562 C 6.644531 15.578125 7.292969 15.949219 7.996094 15.949219 C 8.699219 15.949219 9.351562 15.578125 9.714844 14.976562 L 13.007812 14.976562 C 13.558594 14.976562 14.007812 14.527344 14.007812 13.976562 C 14.007812 13.425781 13.558594 12.976562 13.007812 12.976562 L 9.75 12.976562 C 9.570312 12.664062 9.3125 12.402344 9 12.222656 L 9 11 Z M 7.996094 12.9375 C 8.550781 12.9375 9.003906 13.386719 9 13.945312 C 9.003906 14.5 8.550781 14.949219 7.996094 14.949219 C 7.441406 14.949219 6.988281 14.5 6.988281 13.945312 C 6.988281 13.386719 7.441406 12.9375 7.996094 12.9375 Z M 7.996094 12.9375 "/>
</g>
</svg>
